X: 17
I: linebreak $
T: Bransle de la Guerre (War Bransle)
C: Arbeau
M: 2/2
L: 1/4
K: G major
"^Drone: G/D"d/c/d/e/ dd | B2 Gd | cB AG | F2 D2 | A2 Bc | d2 dd | 
ed d^c | d2 d2 :| dd dB | dd dB | c/A/B c/A/B | AG BA | 
B/G/A B/G/A | GG FG | B/G/A GG | FG G2 |] 

